X:1
T:6 Lieder, Op. 6
T:Die Geister haben's vernommen
T:To Fräulein Angela Oppenhoff 
T:6 Lieder, Op. 6
T:Johanna Kinkel
T:3. Die Geister haben's vernommen
T:Heinrich Heine
T:Creative Commons copyright waiver (CC0 1.0 Universal)
T:Creative Commons copyright waiver (CC0 1.0 Universal)
C:Johanna Kinkel
Z:Heinrich Heine
Z:Creative Commons copyright waiver (CC0 1.0 Universal)
%%score ( 1 2 3 ) { 4 | 5 }
L:1/8
Q:1/4=52
M:3/4
K:Eb
V:1 treble nm="Voice\nSingstimme"
V:2 treble 
V:3 treble 
V:4 treble nm="Piano"
V:5 bass 
V:1
"^Lento"!p! G2 | %1
w: 1. Da|
w: 2. Ich|
w: 3. Nur|
"^Full lyrics available at\nhttps://www.lieder.net/lieder/get_text.html?TextId=7740\n" G4 G2 | %2
w: |
w: muss ja|
w: |
 =A4 G2 | d6 | G4 G2 |"^cres." e2 e2 e2 | d4 c2 |!mf! d6- | !tenuto!.d4 _B B |!f! B3 B B2 | %10
w: blas- se|Lei-|chen be-|schwo- ren mit|Wor- tes-|macht;||wol- len nun|
w: im- mer|stre-|ben *|Blu- * me|wun- der-|hold;|_ _ be-|deu- tet mein|
w: ih- rem|Mun-|de möcht|hö- ren ein||Wort,|_ als- *|dann wollt’ ich|
 _c4 B2 | !>!e6 | !>!_c4 c2 | =c4 F F |!>(! F4 E2!>)! | D6 | !fermata!z2 z2!mf! d2 | d4 d2 | %18
w: nicht mehr|wei-|chen zu-|rück in die|al- te|Nacht.|Lasst|ab, ihr|
w: gan- zes|Le-|ben, *|dich nicht *|lie- ben|sollt?|Ich|möcht’ *|
w: fol- gen|Stun-|de, euch,|Gei- ster, zum|fin- stern|Ort.|Die|Gei- ster|
 d3 d d2 | f6 | d2 z2 d2 | e4 c2 | e4 c2 | d6- | d4"^dolce"!mp! G2 |!<(! =e4 e2!<)! | %26
w: fin- stern Dä-|mo-|nen! lasst|ab, und|drängt mich|nicht!|_ Noch|man- che|
w: ein- mal um-|fan-|gen und||glüh’n- de|Herz!|_ nur|ein- mal|
w: ha- ben’s ver-|nom-|men, und|ni- cken|schau- er-|lich.|_ Fein’s||
!mf!!>(! f3 =e d2 | d6!>)! |!p! !tenuto!.c4!<(! c2 | c4 c2!<)! |!mp!!>(! =B4 d2!>)! | %31
w: Freu- de mag|woh-|nen hier||Ro- sen-|
w: Lip- pen und|Wan-|gen *|* mit|seel’- gem|
w: bin ich ge-|kom-|men, feins|Lieb- chen|liebst du|
[Q:1/4=80]!p! =e6 |[Q:1/4=40]"_Heine" z6[Q:1/4=35][Q:1/4=30] |[Q:1/4=55] z6 |[Q:1/4=50] z6 | %35
w: licht.||||
w: Schmerz!||||
w: mich?||||
[Q:1/4=40] z6 |[Q:1/4=80] z2 z2 :| %37
w: ||
w: ||
w: ||
V:2
 x2 | G3 G G2 | x6 | x6 | x4 G G | e4 e2 | d3 d c2 | x6 | x4 B2 | x6 | x4 B B | x6 | x4 _c c | %13
w: |hab’ ich viel|||||||die|||||
w: ||||nach der||||was||||wenn ich|
w: |cin- mal aus|||* ich||lie- ben- des||||* zur|||
 x4 F2 | x6 | x6 | x6 | d3 d d2 | x6 | x6 | x6 | e3 c c2 | x6 | x6 | x6 | =e3 e e2 | x6 | x6 | %28
w: |||||||||||||||
w: ||||* sie nur||||pres- sen an’s|||||||
w: ||||||||||||Lieb- chen nun|||
 x4 z2 | c3 G G2 | x6 | x6 | x6 | x6 | x6 | x6 | x4 :| %37
w: |o- ben im||||||||
w: |küs- sen *||||||||
w: |||||||||
V:3
 x2 | x6 | x6 | x6 | x6 | x6 | x6 | x6 | x6 | x6 | x6 | x6 | x6 | x6 | x6 | x6 | x6 | d2 z2 x2 | %18
 x6 | x6 | x6 | e2 z2 x2 | x6 | x6 | x6 | x6 | x6 | x6 | x6 | x6 | x6 | x6 | x6 | x6 | x6 | x6 | %36
 x4 :| %37
V:4
!p! [EG]2 | [EG]2 [EG]2 [EG]2 | [E=A]2 [EA]2 [EG]2 | [DF]2 [DF]2 [DF]2 | [=B,DF]2 [B,DF]2 [B,DF]2 | %5
"_cres." [CE]2 [CEG]2 [CEGc]2 | [C^Fc]2 [CFc]2 [CFc]2 | [DG=Bd]2 [DGBd]2 [DGBd]2 | %8
 [DFA_Bd]2 [DFABd]2 [DFABd]2 |!f! [E_GBe]2 [EGBe]2 [EGBe]2 | [EA_ce]2 [EAce]2 [E_GBe]2 | %11
!ff! [E_G_ce]2 [EGce]2 [EGce]2 |!>(! [E_G_ce]2 [EGce]2 [EGce]2!>)! | [EF=A=ce]2 [EFAce]2 [EFAce]2 | %14
!>(! [EF=Ace]2 [EFAce]2 [EFAce]2!>)! | [DFBd]2 [DFBd]2 [DFBd]2 | !fermata![DFBd]4 z2 | %17
!pp! !///![FBd]4!p!!<(! [FBd] z!<)! |!mp! !///![FAd]4!mf! [FAd] z |!f! !///![FAd]6 | [FAd]2 z2 z2 | %21
!p! !///![E=Ac]4 [EAc] z |!mp!!<(! !///![E=Ac]4!<)! [EAc] z |!mf!!<(! !///![DG=B]6!<)! | %24
!mp! [DG=B]2 z2 z2 |"_dolce"!p!!<(! [c=e][=EG] [ce][EG] [ce][EG]!<)! | %26
!mp!!>(! [=Bd][DF] [Bd][DF] [Bd][DF]!>)! | [_Bd][=EG] [Bd][EG] [Bd][EG] | %28
 [=Ac][CF] [Ac][CF] [Ac][CF] | [c=e][=EG] [ce][EG] [ce][EG] | [=Bd][DF] [Bd][DF] [Bd][DF] | %31
!mp! z C/4-=E/4-G/4-c/4- [CEGc]4 | %32
{C-F-=A-c-} [CFAc]2"^molto rit."{^C-F-A-^c-} [CFAc]2{D-F-=A-=c-} [DFAc]2 | %33
!>(! z F/4-G/4-=B/4-d/4- [FGBd]4 | z F/4-G/4-=B/4-d/4- [FGBd]4 | %35
 z =E/4-G/4-c/4-=e/4-!>)!!p! !fermata![EGce]4 | z2 z2 :| %37
V:5
 [C,G,]2 | [C,G,]2 [C,G,]2 [C,G,]2 | [C,^F,]2 [C,F,]2 [C,F,]2 | [C,_A,]2 [C,A,]2 [C,A,]2 | %4
 [C,G,]2 [C,G,]2 [C,G,]2 | [C,G,]2 [C,G,]2 [C,G,]2 | [A,,A,]2 [A,,A,]2 [A,,A,]2 | %7
 [G,,G,]2 [G,,G,]2 [G,,G,]2 | [F,,F,]2 [F,,F,]2 [F,,F,]2 | [E,,B,,E,]2 [E,,B,,E,]2 [E,,B,,E,]2 | %10
 [E,,A,,E,]2 [E,,A,,E,]2 [E,,A,,E,]2 | [_C,,_C,]2 [C,,C,]2 [C,,C,]2 | %12
 [_C,_G,_C]2 [C,G,C]2 [C,G,C]2 | [F,,F,]2 [F,,F,]2 [F,,F,]2 | [F,,F,]2 [F,,F,]2 [F,,F,]2 | %15
 [B,,F,]2 [B,,F,]2 [B,,F,]2 | !fermata![B,,F,]4 z2 | !///![F,B,]4 [F,B,] z | %18
 !///![F,=B,]4 [F,B,] z | !///![F,C]6 | [F,C]2 z2 z2 | !///![F,C]4 [F,C] z | %22
 !///![^F,C]4 [=F,C] z | !///![G,=B,]6 | [G,=B,]2 z2 z2 |!ped! C,G,CG,C,G,!ped-up! | %26
!ped! G,,D,G,D,G,,D,!ped-up! |!ped! C,G,CG,C,G,!ped-up! |!ped! F,,C,F,C,F,,C,!ped-up! | %29
!ped! G,,C,G,C,G,,C,!ped-up! |!ped! G,,D,G,D,G,,D,!ped-up! | %31
!ped! C,/G,/ z[K:treble] !>!=e4!ped-up! | %32
[K:bass]!ped!{F,,F,} !>!f2!ped-up![K:treble]!ped!{F,,F,} !>!=e2!ped-up![K:treble]!ped!{F,,F,} !>!d2!ped-up! | %33
[K:bass]!ped! G,,/G,/ z[K:treble] =a4!ped-up! |[K:bass]!ped! G,,/G,/ z[K:treble] g4!ped-up! | %35
[K:bass]!ped! C,/C/ z[K:treble] !>!!fermata!c'4!ped-up! | z2 z2 :| %37

